src/assets/icons/groups_icon.svg

<svg fill="none" viewBox="0 0 18 12" xmlns="http://www.w3.org/2000/svg"><path d="m12.6 6.85714c5.4 0 5.4 3.42856 5.4 3.42856v1.7143h-5.4v-1.7143s0-1.44856-1.035-2.74284c-.153-.19715-.342-.38572-.54-.56572.468-.06857.981-.12 1.575-.12zm-7.2 1.71429c3.15 0 3.546 1.33714 3.6 1.71427h-7.2c.054-.37713.45-1.71427 3.6-1.71427zm0-1.71429c-5.4 0-5.4 3.42856-5.4 3.42856v1.7143h10.8v-1.7143s0-3.42856-5.4-3.42856zm0-5.14285c.495 0 .9.38571.9.85714s-.405.85714-.9.85714-.9-.38571-.9-.85714.405-.85714.9-.85714zm0-1.71429c-1.494 0-2.7 1.14857-2.7 2.57143s1.206 2.57143 2.7 2.57143 2.7-1.14857 2.7-2.57143-1.206-2.57143-2.7-2.57143zm7.2 0c-1.494 0-2.7 1.14857-2.7 2.57143s1.206 2.57143 2.7 2.57143 2.7-1.14857 2.7-2.57143-1.206-2.57143-2.7-2.57143z" fill="#666f7d"/></svg>

<svg viewBox="0 0 18 12" fill="none" xmlns="http://www.w3.org/2000/svg">
<path d="M12.6 6.85714C18 6.85714 18 10.2857 18 10.2857V12H12.6V10.2857C12.6 10.2857 12.6 8.83714 11.565 7.54286C11.412 7.34571 11.223 7.15714 11.025 6.97714C11.493 6.90857 12.006 6.85714 12.6 6.85714ZM5.4 8.57143C8.55 8.57143 8.946 9.90857 9 10.2857H1.8C1.854 9.90857 2.25 8.57143 5.4 8.57143ZM5.4 6.85714C0 6.85714 0 10.2857 0 10.2857V12H10.8V10.2857C10.8 10.2857 10.8 6.85714 5.4 6.85714ZM5.4 1.71429C5.895 1.71429 6.3 2.1 6.3 2.57143C6.3 3.04286 5.895 3.42857 5.4 3.42857C4.905 3.42857 4.5 3.04286 4.5 2.57143C4.5 2.1 4.905 1.71429 5.4 1.71429ZM5.4 0C3.906 0 2.7 1.14857 2.7 2.57143C2.7 3.99429 3.906 5.14286 5.4 5.14286C6.894 5.14286 8.1 3.99429 8.1 2.57143C8.1 1.14857 6.894 0 5.4 0ZM12.6 0C11.106 0 9.9 1.14857 9.9 2.57143C9.9 3.99429 11.106 5.14286 12.6 5.14286C14.094 5.14286 15.3 3.99429 15.3 2.57143C15.3 1.14857 14.094 0 12.6 0Z" fill="#666F7D"/>
</svg>
